assets/2023/icons/java_dark.svg

<!-- Copyright 2000-2023 JetBrains s.r.o. and contributors. Use of this source code is governed by the Apache 2.0 license. -->
<svg width="16" height="16" viewBox="0 0 16 16" fill="none" xmlns="http://www.w3.org/2000/svg">
<rect x="2" y="13" width="12" height="1" rx="0.5" fill="#C77D55"/>
<path d="M2.5 3C2.5 2.72386 2.72386 2.5 3 2.5H12C12.2761 2.5 12.5 2.72386 12.5 3V8C12.5 9.933 10.933 11.5 9 11.5H6C4.067 11.5 2.5 9.933 2.5 8V3Z" fill="#45322B" stroke="#C77D55"/>
<path d="M12.5 2.5H14.5C14.7761 2.5 15 2.72386 15 3V4.18121C15 4.78125 14.6424 5.32356 14.0909 5.55993L12.5 6.24173V2.5Z" stroke="#C77D55"/>
</svg>

<svg xmlns="http://www.w3.org/2000/svg" width="16" height="16" fill="none" viewBox="0 0 16 16"><rect width="12" height="1" x="2" y="13" fill="#C77D55" rx=".5"/><path fill="#45322B" stroke="#C77D55" d="M2.5 3a.5.5 0 0 1 .5-.5h9a.5.5 0 0 1 .5.5v5A3.5 3.5 0 0 1 9 11.5H6A3.5 3.5 0 0 1 2.5 8z"/><path stroke="#C77D55" d="M12.5 2.5h2a.5.5 0 0 1 .5.5v1.181a1.5 1.5 0 0 1-.91 1.379l-1.59.682z"/></svg>
